icons/desktop/32/racing-32.svg

<svg width="32" height="32" viewBox="0 0 32 32" fill="none" xmlns="http://www.w3.org/2000/svg">
<path d="M18 11.5V15.5L14 14.5V10.5L18 11.5Z" fill="black"/>
<path fill-rule="evenodd" clip-rule="evenodd" d="M5.25 2C5.94036 2 6.5 2.55964 6.5 3.25V5.03223L10.1631 4.44141L10.5234 4.38867C12.3261 4.14868 14.1613 4.28112 15.9131 4.78223L16.9863 5.08984L16.9854 5.09082C18.9494 5.65233 21.0338 5.6401 22.9932 5.05957C25.4919 4.31956 28 6.19214 28 8.79883V16.7725C27.9998 18.391 27.0011 19.8299 25.5117 20.4072L25.208 20.5107L23.7031 20.957C21.2883 21.6725 18.7199 21.6842 16.2988 20.9932L15.2256 20.6865C13.7097 20.2538 12.117 20.1585 10.5615 20.4092L6.5 21.0645V28.75C6.5 29.4404 5.94036 30 5.25 30C4.55964 30 4 29.4404 4 28.75V3.25C4 2.55964 4.55964 2 5.25 2ZM14 10.5H10V6.99902L6.5 7.56445V11.375L10 10.5V14.5L6.5 15.375V18.5322L10 17.9668V14.5H14V17.8857C14.6446 17.9705 15.2838 18.1029 15.9121 18.2822L16.9863 18.5898C17.3213 18.6854 17.6593 18.7618 18 18.8242V15.5H22V18.8008C22.3336 18.7356 22.6654 18.6567 22.9932 18.5596L24.498 18.1143L24.6074 18.0762C25.1413 17.869 25.4998 17.3529 25.5 16.7725V14.625L22 15.5V11.5L25.5 10.625V8.79883C25.5 7.86364 24.6002 7.19133 23.7031 7.45703C23.1426 7.6231 22.5733 7.74854 22 7.83887V11.5H18V7.85742C17.4278 7.77273 16.8591 7.65333 16.2988 7.49316L15.2256 7.18652C14.8219 7.07104 14.4126 6.97937 14 6.91211V10.5Z" fill="black"/>
</svg>

<!-- This Source Code Form is subject to the terms of the Mozilla Public
   - License, v. 2.0. If a copy of the MPL was not distributed with this
   - file, You can obtain one at http://mozilla.org/MPL/2.0/. -->
<svg xmlns="http://www.w3.org/2000/svg" width="32" height="32" fill="context-fill" fill-opacity="context-fill-opacity" viewBox="0 0 32 32">
    <path d="M18 11.5v4l-4-1v-4z" />
    <path fill-rule="evenodd" d="M5.25 2c.69 0 1.25.56 1.25 1.25v1.782l3.663-.59.36-.053a13.2 13.2 0 0 1 5.39.393l1.073.308a10.75 10.75 0 0 0 6.007-.03C25.492 4.32 28 6.192 28 8.799v7.974a3.9 3.9 0 0 1-2.488 3.634l-.304.104-1.505.446a13.26 13.26 0 0 1-7.404.036l-1.073-.306a10.8 10.8 0 0 0-4.664-.278l-4.062.656v7.685a1.25 1.25 0 1 1-2.5 0V3.25C4 2.56 4.56 2 5.25 2M14 10.5h-4V6.999l-3.5.565v3.811L10 10.5v4l-3.5.875v3.157l3.5-.565V14.5h4v3.386a13 13 0 0 1 1.912.396l1.074.308q.503.142 1.014.234V15.5h4v3.3q.501-.095.993-.24l1.505-.446.11-.038a1.4 1.4 0 0 0 .892-1.303v-2.148L22 15.5v-4l3.5-.875V8.799a1.4 1.4 0 0 0-1.797-1.342q-.842.248-1.703.382V11.5h-4V7.857a13 13 0 0 1-1.701-.364l-1.073-.306A11 11 0 0 0 14 6.912z" clip-rule="evenodd" />
</svg>
